dest/img/img-dino-hand.svg

<svg fill="none" height="39" viewBox="0 0 37 39" width="37" xmlns="http://www.w3.org/2000/svg"><g fill="#21bf73"><path d="m36.6818 34.5864c-.2408 1.3157-.6921 2.706-1.7603 3.5283-.8726.6728-2.016.8522-3.1142.8821-1.339.0299-2.693-.1495-3.9718-.5382 1.5345-.7176 3.0089-1.5549 4.4081-2.5117-1.8806-.4635-3.7161-1.0914-5.4914-1.8688 1.4895-.5831 3.024-1.0316 4.5887-1.3605-1.8054-.6877-3.5807-1.4502-5.3409-2.2725 2.016-.6279 4.047-1.2408 6.063-1.8688 1.4744-.4485 3.3249-1.1661 4.3179.299.9628 1.4353.5867 4.1264.3009 5.7111z"/><path d="m6.58642.31824c1.31564.240716 2.70602.69206 3.52828 1.76023.6728.8726.8522 2.016.8821 3.11426.0299 1.33898-.1495 2.69301-.5382 3.97181-.71764-1.53456-1.55487-3.00894-2.5117-4.4081-.46346 1.88059-1.09138 3.71605-1.8688 5.49136-.58307-1.48946-1.03157-3.02403-1.36048-4.58868-.68772 1.80537-1.45021 3.58065-2.27248 5.34088-.62792-2.01599-1.24089-4.04704-1.868803-6.06303-.448513-1.47438-1.166133-3.32488.299009-4.317835 1.435244-.962863 4.126324-.5867447 5.711074-.300895z"/></g></svg>

<svg width="37" height="39" viewBox="0 0 37 39" fill="none" xmlns="http://www.w3.org/2000/svg">
<path d="M36.6818 34.5864C36.441 35.9021 35.9897 37.2924 34.9215 38.1147C34.0489 38.7875 32.9055 38.9669 31.8073 38.9968C30.4683 39.0267 29.1143 38.8473 27.8355 38.4586C29.37 37.741 30.8444 36.9037 32.2436 35.9469C30.363 35.4834 28.5275 34.8555 26.7522 34.0781C28.2417 33.495 29.7762 33.0465 31.3409 32.7176C29.5355 32.0299 27.7602 31.2674 26 30.4451C28.016 29.8172 30.047 29.2043 32.063 28.5763C33.5374 28.1278 35.3879 27.4102 36.3809 28.8753C37.3437 30.3106 36.9676 33.0017 36.6818 34.5864Z" fill="#21BF73"/>
<path d="M6.58642 0.31824C7.90206 0.558956 9.29244 1.0103 10.1147 2.07847C10.7875 2.95107 10.9669 4.09447 10.9968 5.19273C11.0267 6.53171 10.8473 7.88574 10.4586 9.16454C9.74096 7.62998 8.90373 6.1556 7.9469 4.75644C7.48344 6.63703 6.85552 8.47249 6.0781 10.2478C5.49503 8.75834 5.04653 7.22377 4.71762 5.65912C4.0299 7.46449 3.26741 9.23977 2.44514 11C1.81722 8.98401 1.20425 6.95296 0.576337 4.93697C0.127824 3.46259 -0.589796 1.61209 0.875346 0.619135C2.31059 -0.343728 5.00167 0.0323903 6.58642 0.31824Z" fill="#21BF73"/>
</svg>
